packages/icons/raw/imported/ControlsEyeCrossed.svg

<svg width="32" height="32" viewBox="0 0 32 32" fill="none" xmlns="http://www.w3.org/2000/svg">
<path d="M19.4249 23.1033C19.6753 22.987 19.7841 22.6897 19.6678 22.4393C19.5515 22.1888 19.2541 22.0801 19.0037 22.1964L19.4249 23.1033ZM22.8848 19.196C22.7083 19.4083 22.7373 19.7236 22.9496 19.9001C23.162 20.0766 23.4772 20.0476 23.6538 19.8352L22.8848 19.196ZM10.4886 14.1709C10.7117 14.0082 10.7607 13.6954 10.598 13.4723C10.4352 13.2492 10.1225 13.2003 9.89935 13.363L10.4886 14.1709ZM15.6539 19.8617C15.9301 19.8617 16.1539 19.6379 16.1539 19.3617C16.1539 19.0856 15.9301 18.8617 15.6539 18.8617V19.8617ZM12.3463 15.5845C12.3463 15.3084 12.1224 15.0845 11.8463 15.0845C11.5702 15.0845 11.3463 15.3084 11.3463 15.5845H12.3463ZM18.9616 15.5845C18.9616 15.8607 19.1855 16.0845 19.4616 16.0845C19.7377 16.0845 19.9616 15.8607 19.9616 15.5845H18.9616ZM24.6812 12.1926C24.894 12.3687 25.2092 12.339 25.3852 12.1262C25.5613 11.9135 25.5316 11.5983 25.3188 11.4222L24.6812 12.1926ZM12.4051 8.36472C12.139 8.43848 11.983 8.714 12.0568 8.98011C12.1306 9.24622 12.4061 9.40215 12.6722 9.32839L12.4051 8.36472ZM6.68144 11.4222C6.4687 11.5983 6.43897 11.9135 6.61504 12.1262C6.7911 12.339 7.10628 12.3687 7.31902 12.1926L6.68144 11.4222ZM8.04151 11.6272C8.26361 11.4631 8.31063 11.15 8.14654 10.9279C7.98245 10.7058 7.66937 10.6588 7.44728 10.8229L8.04151 11.6272ZM7.35524 6.64814C7.16092 6.45195 6.84434 6.45043 6.64814 6.64476C6.45195 6.83908 6.45043 7.15566 6.64476 7.35186L7.35524 6.64814ZM23.3589 24.2267C23.5532 24.4229 23.8698 24.4244 24.066 24.2301C24.2621 24.0357 24.2637 23.7192 24.0693 23.523L23.3589 24.2267ZM15.654 22.9823C13.4239 22.9823 11.3706 21.8924 9.85589 20.6238C9.10211 19.9925 8.49704 19.3294 8.08479 18.762C7.87839 18.4779 7.72577 18.2253 7.62691 18.0191C7.52153 17.7993 7.50023 17.6792 7.50023 17.6448H6.50023C6.50023 17.9062 6.6 18.1903 6.72517 18.4514C6.85687 18.7261 7.04427 19.0312 7.27578 19.3498C7.73933 19.9878 8.40158 20.7102 9.21382 21.3904C10.8311 22.7449 13.1048 23.9823 15.654 23.9823V22.9823ZM15.654 12.3073C17.8841 12.3073 19.9373 13.3973 21.4521 14.6659C22.2059 15.2972 22.8109 15.9602 23.2232 16.5276C23.4296 16.8117 23.5822 17.0643 23.681 17.2706C23.7864 17.4904 23.8077 17.6105 23.8077 17.6448H24.8077C24.8077 17.3835 24.708 17.0994 24.5828 16.8383C24.4511 16.5636 24.2637 16.2585 24.0322 15.9398C23.5686 15.3018 22.9064 14.5795 22.0941 13.8992C20.4768 12.5447 18.2032 11.3073 15.654 11.3073V12.3073ZM19.0037 22.1964C17.9698 22.6765 16.8364 22.9823 15.654 22.9823V23.9823C17.0098 23.9823 18.287 23.6318 19.4249 23.1033L19.0037 22.1964ZM23.8077 17.6448C23.8077 17.696 23.7679 17.8707 23.5986 18.179C23.4407 18.4666 23.2008 18.8158 22.8848 19.196L23.6538 19.8352C24.0001 19.4186 24.2795 19.0167 24.4752 18.6603C24.6595 18.3245 24.8077 17.9621 24.8077 17.6448H23.8077ZM7.50023 17.6448C7.50023 17.6017 7.53073 17.453 7.66911 17.186C7.79847 16.9365 7.99629 16.6322 8.25982 16.2959C8.78641 15.624 9.55161 14.8543 10.4886 14.1709L9.89935 13.363C8.88747 14.101 8.0558 14.9351 7.47272 15.6791C7.18143 16.0508 6.94623 16.4076 6.78127 16.7259C6.62533 17.0268 6.50023 17.3528 6.50023 17.6448H7.50023ZM15.6539 18.8617C13.8234 18.8617 12.3463 17.3907 12.3463 15.5845H11.3463C11.3463 17.9505 13.2787 19.8617 15.6539 19.8617V18.8617ZM15.654 12.3073C17.4845 12.3073 18.9616 13.7783 18.9616 15.5845H19.9616C19.9616 13.2185 18.0292 11.3073 15.654 11.3073V12.3073ZM16.0001 8.8736C19.1539 8.8736 22.1213 10.074 24.6812 12.1926L25.3188 11.4222C22.6072 9.17803 19.4201 7.8736 16.0001 7.8736V8.8736ZM12.6722 9.32839C13.7491 9.0299 14.8616 8.8736 16.0001 8.8736V7.8736C14.7693 7.8736 13.5669 8.04269 12.4051 8.36472L12.6722 9.32839ZM7.31902 12.1926C7.55641 11.9962 7.7973 11.8076 8.04151 11.6272L7.44728 10.8229C7.18804 11.0144 6.9327 11.2143 6.68144 11.4222L7.31902 12.1926ZM6.64476 7.35186L23.3589 24.2267L24.0693 23.523L7.35524 6.64814L6.64476 7.35186Z" fill="black"/>
</svg>

<svg width="32" height="32" fill="none" xmlns="http://www.w3.org/2000/svg"><path d="M19.425 23.103a.5.5 0 1 0-.421-.907l.42.907Zm3.46-3.907a.5.5 0 1 0 .769.64l-.77-.64Zm-12.396-5.025a.5.5 0 1 0-.59-.808l.59.808Zm5.165 5.69a.5.5 0 1 0 0-1v1Zm-3.308-4.277a.5.5 0 0 0-1 0h1Zm6.616 0a.5.5 0 1 0 1 0h-1Zm5.72-3.391a.5.5 0 1 0 .637-.77l-.638.77ZM12.404 8.365a.5.5 0 1 0 .267.963l-.267-.963Zm-5.724 3.057a.5.5 0 0 0 .638.77l-.638-.77Zm1.36.205a.5.5 0 0 0-.594-.804l.595.804Zm-.686-4.979a.5.5 0 0 0-.71.704l.71-.704ZM23.36 24.227a.5.5 0 1 0 .71-.704l-.71.704Zm-7.705-1.245c-2.23 0-4.283-1.09-5.798-2.358a10.786 10.786 0 0 1-1.771-1.862 4.963 4.963 0 0 1-.458-.743c-.105-.22-.127-.34-.127-.374h-1c0 .261.1.545.225.806.132.275.32.58.55.899.464.638 1.127 1.36 1.939 2.04 1.617 1.355 3.89 2.592 6.44 2.592v-1Zm0-10.675c2.23 0 4.283 1.09 5.798 2.359a10.787 10.787 0 0 1 1.771 1.862c.207.284.36.536.458.743.105.22.127.34.127.374h1c0-.261-.1-.546-.225-.807a5.948 5.948 0 0 0-.55-.898 11.783 11.783 0 0 0-1.939-2.04c-1.617-1.355-3.89-2.593-6.44-2.593v1Zm3.35 9.89c-1.034.48-2.168.785-3.35.785v1c1.356 0 2.633-.35 3.77-.879l-.42-.907Zm4.804-4.552c0 .051-.04.226-.21.534a6.699 6.699 0 0 1-.713 1.017l.769.64a7.68 7.68 0 0 0 .821-1.176c.184-.335.333-.698.333-1.015h-1Zm-16.308 0c0-.043.03-.192.17-.459.128-.25.326-.554.59-.89a11.489 11.489 0 0 1 2.229-2.125l-.59-.808a12.485 12.485 0 0 0-2.426 2.316 6.887 6.887 0 0 0-.692 1.047c-.156.3-.28.627-.28.919h1Zm8.154 1.217c-1.83 0-3.308-1.471-3.308-3.277h-1c0 2.366 1.933 4.277 4.308 4.277v-1Zm0-6.555c1.83 0 3.308 1.471 3.308 3.277h1c0-2.365-1.933-4.277-4.308-4.277v1ZM16 8.874c3.154 0 6.121 1.2 8.681 3.319l.638-.77C22.607 9.177 19.42 7.872 16 7.872v1Zm-3.328.454A12.424 12.424 0 0 1 16 8.874v-1c-1.23 0-2.433.169-3.595.49l.267.964ZM7.32 12.193a16.7 16.7 0 0 1 .723-.566l-.595-.804c-.259.191-.514.391-.766.6l.638.77Zm-.674-4.841 16.714 16.875.71-.704L7.355 6.648l-.71.704Z" fill="#000"/></svg>
